src/svg/share-alt-square.svg

<svg height="1000" width="875.0" xmlns="http://www.w3.org/2000/svg">
    <path d="m875 156.3v687.5c0 51.7-42 93.7-93.7 93.7h-687.5c-51.8 0-93.8-42-93.8-93.7v-687.5c0-51.8 42-93.8 93.8-93.8h687.5c51.7 0 93.7 42 93.7 93.8z m-281.2 421.8c-28.5 0-54.4 10.9-73.8 28.7l-132.8-79.7c2.2-8.7 3.4-17.8 3.4-27.1 0-9.4-1.2-18.4-3.4-27.1l132.8-79.7c19.4 17.8 45.3 28.7 73.8 28.7 60.4 0 109.3-49 109.3-109.4s-48.9-109.4-109.3-109.4-109.4 49-109.4 109.4c0 9.4 1.2 18.5 3.4 27.1l-132.8 79.7c-19.4-17.8-45.3-28.7-73.7-28.7-60.5 0-109.4 49-109.4 109.4s48.9 109.4 109.4 109.4c28.4 0 54.3-10.9 73.7-28.7l132.8 79.7c-2.2 8.6-3.4 17.7-3.4 27.1 0 0 0 0 0 0 0 60.4 48.9 109.4 109.4 109.4s109.3-49 109.3-109.4c0-60.4-48.9-109.4-109.4-109.4z" />
  </svg>

<svg height="1000" width="875" xmlns="http://www.w3.org/2000/svg"><path d="M875 156.3v687.5c0 51.7 -42 93.7 -93.7 93.7H93.8C42 937.5 0 895.5 0 843.8V156.3C0 104.5 42 62.5 93.8 62.5h687.5c51.7 0 93.7 42 93.7 93.8zM593.8 578.1c-28.5 0 -54.4 10.9 -73.8 28.7L387.2 527.1a110 -110 0 0 1 0 -54.2L520 393.2c19.4 17.8 45.3 28.7 73.8 28.7 60.4 0 109.3 -49 109.3 -109.4S654.2 203.1 593.8 203.1s-109.4 49 -109.4 109.4c0 9.4 1.2 18.5 3.4 27.1L355 419.3c-19.4 -17.8 -45.3 -28.7 -73.7 -28.7 -60.5 0 -109.4 49 -109.4 109.4s48.9 109.4 109.4 109.4c28.4 0 54.3 -10.9 73.7 -28.7l132.8 79.7a109.5 -109.5 0 0 1 -3.4 27.1c0 60.4 48.9 109.4 109.4 109.4s109.3 -49 109.3 -109.4c0 -60.4 -48.9 -109.4 -109.3 -109.4z"/></svg>
